src/assets/outline/EmojiSad.svg

<svg width="24" height="24" viewBox="0 0 24 24"  xmlns="http://www.w3.org/2000/svg">
<path d="M15 22.75H9C3.57 22.75 1.25 20.43 1.25 15V9C1.25 3.57 3.57 1.25 9 1.25H15C20.43 1.25 22.75 3.57 22.75 9V15C22.75 20.43 20.43 22.75 15 22.75ZM9 2.75C4.39 2.75 2.75 4.39 2.75 9V15C2.75 19.61 4.39 21.25 9 21.25H15C19.61 21.25 21.25 19.61 21.25 15V9C21.25 4.39 19.61 2.75 15 2.75H9Z" />
<path d="M10.6399 9.50043C10.4499 9.50043 10.2599 9.43043 10.1099 9.28043C9.39994 8.57043 8.23994 8.57043 7.52994 9.28043C7.23994 9.57043 6.75994 9.57043 6.46994 9.28043C6.17994 8.99043 6.17994 8.51043 6.46994 8.22043C7.75994 6.93043 9.86994 6.93043 11.1699 8.22043C11.4599 8.51043 11.4599 8.99043 11.1699 9.28043C11.0199 9.43043 10.8299 9.50043 10.6399 9.50043Z" />
<path d="M13.3598 9.50043C13.1698 9.50043 12.9798 9.43043 12.8298 9.28043C12.5398 8.99043 12.5398 8.51043 12.8298 8.22043C14.1198 6.93043 16.2298 6.93043 17.5298 8.22043C17.8198 8.51043 17.8198 8.99043 17.5298 9.28043C17.2398 9.57043 16.7598 9.57043 16.4698 9.28043C15.7598 8.57043 14.5998 8.57043 13.8898 9.28043C13.7498 9.43043 13.5598 9.50043 13.3598 9.50043Z" />
<path d="M15.6 18.4498H8.4C7.49 18.4498 6.75 17.7098 6.75 16.7998C6.75 13.9098 9.1 11.5498 12 11.5498C14.9 11.5498 17.25 13.9098 17.25 16.7998C17.25 17.7098 16.51 18.4498 15.6 18.4498ZM12 13.0498C9.93 13.0498 8.25 14.7298 8.25 16.7998C8.25 16.8798 8.32 16.9498 8.4 16.9498H15.6C15.68 16.9498 15.75 16.8798 15.75 16.7998C15.75 14.7298 14.07 13.0498 12 13.0498Z" />
</svg>

<?xml version="1.0" encoding="UTF-8"?>
<svg width="24" height="24" viewBox="0 0 24 24" xmlns="http://www.w3.org/2000/svg">
 <path d="m15 22.75h-6c-5.43 0-7.75-2.32-7.75-7.75v-6c0-5.43 2.32-7.75 7.75-7.75h6c5.43 0 7.75 2.32 7.75 7.75v6c0 5.43-2.32 7.75-7.75 7.75zm-6-20c-4.61 0-6.25 1.64-6.25 6.25v6c0 4.61 1.64 6.25 6.25 6.25h6c4.61 0 6.25-1.64 6.25-6.25v-6c0-4.61-1.64-6.25-6.25-6.25h-6z"/>
 <path d="m10.64 9.5004c-0.19 0-0.38-0.07-0.53-0.22-0.70996-0.71-1.87-0.71-2.58 0-0.29 0.29-0.77 0.29-1.06 0s-0.29-0.77 0-1.06c1.29-1.29 3.4-1.29 4.7 0 0.29 0.29 0.29 0.77 0 1.06-0.15 0.15-0.34 0.22-0.53 0.22z"/>
 <path d="m13.36 9.5004c-0.19 0-0.38-0.07-0.53-0.22-0.29-0.29-0.29-0.77 0-1.06 1.29-1.29 3.4-1.29 4.7 0 0.29 0.29 0.29 0.77 0 1.06s-0.77 0.29-1.06 0c-0.71-0.71-1.87-0.71-2.58 0-0.14 0.15-0.33 0.22-0.53 0.22z"/>
 <path d="m15.6 18.45h-7.2c-0.91 0-1.65-0.74-1.65-1.65 0-2.89 2.35-5.25 5.25-5.25s5.25 2.36 5.25 5.25c0 0.91-0.74 1.65-1.65 1.65zm-3.6-5.4c-2.07 0-3.75 1.68-3.75 3.75 0 0.08 0.07 0.15 0.15 0.15h7.2c0.08 0 0.15-0.07 0.15-0.15 0-2.07-1.68-3.75-3.75-3.75z"/>
</svg>
